Newaita-dark/apps/48/converseen.svg

<svg height="48pt" viewBox="0 0 48 48" width="48pt" xmlns="http://www.w3.org/2000/svg" xmlns:xlink="http://www.w3.org/1999/xlink"><linearGradient id="a"><stop offset="0" stop-opacity=".313725"/><stop offset=".222222" stop-opacity=".27451"/><stop offset="1" stop-opacity="0"/></linearGradient><radialGradient id="b" cx="450.908936" cy="189.579361" gradientTransform="matrix(.00000026 -.117199 -.210958 -.00000015 63.311744 95.392994)" gradientUnits="userSpaceOnUse" r="21.166656" xlink:href="#a"/><radialGradient id="c" cx="450.908936" cy="189.579361" gradientTransform="matrix(-.00000026 .117199 .210958 .00000015 -15.682188 -11.291223)" gradientUnits="userSpaceOnUse" r="21.166656" xlink:href="#a"/><radialGradient id="d" cx="450.908936" cy="189.579361" gradientTransform="matrix(-.00000026 -.117199 .210958 -.00000015 -15.682188 95.392994)" gradientUnits="userSpaceOnUse" r="21.166656" xlink:href="#a"/><radialGradient id="e" cx="450.908936" cy="189.579361" gradientTransform="matrix(.00000026 .117199 -.210958 .00000015 63.311741 -11.291224)" gradientUnits="userSpaceOnUse" r="21.166656" xlink:href="#a"/><linearGradient id="f" gradientTransform="matrix(0 -.093759 -.093759 0 26.854129 47.012301)" gradientUnits="userSpaceOnUse" x1="254" x2="254" y1="191.166672" y2="-126.333344"><stop offset="0" stop-color="#7cb342"/><stop offset="1" stop-color="#689f38"/></linearGradient><path d="m23.816406 42.050781h3.96875v-1.984375h-3.96875zm0 0" fill="url(#b)"/><path d="m23.816406 42.050781h-3.972656v1.984375h3.972656zm0 0" fill="url(#c)"/><path d="m23.816406 42.050781h-3.972656v-1.984375h3.972656zm0 0" fill="url(#d)"/><path d="m23.816406 42.050781h3.96875v1.984375h-3.96875zm0 0" fill="url(#e)"/><path d="m38.699219 23.199219c0 8.246093-6.636719 14.882812-14.882813 14.882812v3.96875l-10.917968-5.953125c-.992188-.496094-.992188-1.488281 0-1.984375l10.917968-5.953125v3.96875c6.59375 0 11.90625-3.984375 11.90625-8.929687 0-.277344.222656-.496094.496094-.496094h1.984375c.273437 0 .496094.21875.496094.496094zm-3.226563-11.910157c0 .375-.246094.746094-.742187.992188l-10.914063 5.953125v-3.96875c-6.597656 0-11.910156 3.984375-11.910156 8.933594 0 .273437-.21875.496093-.496094.496093h-1.984375c-.273437 0-.496093-.222656-.496093-.496093 0-8.246094 6.640624-14.886719 14.886718-14.886719v-3.96875l10.914063 5.953125c.496093.25.742187.621094.742187.992187zm0 0" fill="url(#f)"/><path d="m23.816406 4.34375v.371094l10.914063 5.957031c.414062.203125.652343.496094.722656.804687.015625-.0625.019531-.125.019531-.1875 0-.371093-.246094-.742187-.742187-.992187zm0 3.96875c-8.246094 0-14.886718 6.640625-14.886718 14.886719 0 .019531.003906.039062.003906.054687.167968-8.097656 6.742187-14.570312 14.882812-14.570312zm12.402344 14.390625c-.273438 0-.496094.21875-.496094.496094 0 4.945312-5.3125 8.929687-11.90625 8.929687v.371094c6.59375 0 11.90625-3.984375 11.90625-8.929688 0-.277343.222656-.496093.496094-.496093h1.984375c.253906 0 .464844.191406.492187.4375.003907-.105469.003907-.210938.003907-.3125 0-.277344-.222657-.496094-.496094-.496094zm-12.402344 5.457031-10.917968 5.953125c-.578126.289063-.820313.746094-.722657 1.175781.070313-.304687.3125-.597656.722657-.804687l10.917968-5.953125zm0 0" fill="#fff" fill-opacity=".392157"/><path d="m35.453125 11.105469c-.070313.304687-.308594.597656-.722656.804687l-10.914063 5.953125v.371094l10.914063-5.953125c.496093-.246094.742187-.617188.742187-.992188 0-.0625-.003906-.125-.019531-.183593zm-11.636719 2.789062c-6.597656 0-11.910156 3.984375-11.910156 8.929688 0 .277343-.21875.496093-.496094.496093h-1.984375c-.253906 0-.464843-.191406-.492187-.4375 0 .105469-.003906.210938-.003906.316407 0 .273437.222656.496093.496093.496093h1.984375c.277344 0 .496094-.222656.496094-.496093 0-4.949219 5.3125-8.933594 11.910156-8.933594zm14.878906 9.246094c-.164062 8.097656-6.738281 14.570313-14.878906 14.570313v.371093c8.246094 0 14.882813-6.636719 14.882813-14.882812 0-.019531 0-.039063-.003907-.058594zm-26.519531 11.777344c-.097656.429687.144531.890625.722657 1.179687l10.917968 5.953125v-.371093l-10.917968-5.953126c-.410157-.207031-.652344-.5-.722657-.808593zm0 0" fill-opacity=".235294"/><path d="m23.816406 4.203125c-.078125 0-.140625.0625-.140625.140625v3.835938c-8.257812.074218-14.886719 6.742187-14.886719 15.019531 0 .015625.003907.035156.011719.050781.03125.324219.292969.585938.625.585938h1.984375c.351563 0 .636719-.289063.636719-.636719 0-2.425781 1.300781-4.617188 3.425781-6.210938 2.09375-1.570312 4.988282-2.546875 8.203125-2.574219v3.820313c0 .050781.023438.097656.066407.121094.042968.027343.097656.027343.140624.003906l10.910157-5.949219c.53125-.265625.820312-.683594.820312-1.121094 0-.433593-.289062-.851562-.820312-1.117187l.003906.003906-10.914063-5.957031c-.019531-.007812-.042968-.015625-.066406-.015625zm.140625.378906 10.707031 5.839844c.464844.234375.667969.558594.667969.867187 0 .3125-.203125.636719-.664062.867188l-10.710938 5.84375v-3.734375c0-.078125-.066406-.140625-.140625-.140625-3.328125 0-6.332031 1.003906-8.511718 2.640625-2.179688 1.632813-3.539063 3.90625-3.539063 6.433594 0 .199219-.15625.355469-.355469.355469h-1.984375c-.199219 0-.355469-.15625-.355469-.355469 0-8.171875 6.574219-14.746094 14.746094-14.746094.074219 0 .140625-.0625.140625-.140625zm12.261719 17.980469c-.351562 0-.636719.285156-.636719.636719 0 2.421875-1.300781 4.613281-3.425781 6.207031-2.09375 1.570312-4.988281 2.546875-8.199219 2.574219v-3.820313c0-.050781-.027343-.097656-.070312-.121094-.042969-.027343-.097657-.027343-.140625-.003906l-10.914063 5.953125h.003907c-.527344.261719-.820313.683594-.820313 1.117188 0 .433593.292969.851562.820313 1.117187l10.910156 5.953125c.042968.023438.097656.019531.140625-.003906s.070312-.070313.070312-.121094v-3.835937c8.253907-.074219 14.882813-6.742188 14.882813-15.015625 0-.351563-.285156-.636719-.636719-.636719zm0 .28125h1.984375c.199219 0 .355469.15625.355469.355469 0 8.167969-6.574219 14.742187-14.742188 14.742187-.078125 0-.140625.0625-.140625.140625v3.730469l-10.707031-5.839844c-.46875-.234375-.671875-.558594-.671875-.867187 0-.308594.203125-.636719.664063-.867188l10.714843-5.84375v3.734375c0 .078125.0625.140625.140625.140625 3.324219 0 6.332032-1.003906 8.511719-2.640625 2.179687-1.632812 3.535156-3.90625 3.535156-6.429687 0-.199219.15625-.355469.355469-.355469zm0 0" fill="#333"/></svg>

<?xml version="1.0" encoding="UTF-8"?>
<svg xmlns="http://www.w3.org/2000/svg" xmlns:xlink="http://www.w3.org/1999/xlink" width="48pt" height="48pt" viewBox="0 0 48 48" version="1.1">
<defs>
<radialGradient id="radial0" gradientUnits="userSpaceOnUse" cx="450.908936" cy="189.579361" fx="450.908936" fy="189.579361" r="21.166656" gradientTransform="matrix(0.000000261256,-0.117199,-0.210958,-0.000000152308,63.311744,95.392994)">
<stop offset="0" style="stop-color:rgb(0%,0%,0%);stop-opacity:0.313725;"/>
<stop offset="0.222222" style="stop-color:rgb(0%,0%,0%);stop-opacity:0.27451;"/>
<stop offset="1" style="stop-color:rgb(0%,0%,0%);stop-opacity:0;"/>
</radialGradient>
<radialGradient id="radial1" gradientUnits="userSpaceOnUse" cx="450.908936" cy="189.579361" fx="450.908936" fy="189.579361" r="21.166656" gradientTransform="matrix(-0.000000261256,0.117199,0.210958,0.000000152308,-15.682188,-11.291223)">
<stop offset="0" style="stop-color:rgb(0%,0%,0%);stop-opacity:0.313725;"/>
<stop offset="0.222222" style="stop-color:rgb(0%,0%,0%);stop-opacity:0.27451;"/>
<stop offset="1" style="stop-color:rgb(0%,0%,0%);stop-opacity:0;"/>
</radialGradient>
<radialGradient id="radial2" gradientUnits="userSpaceOnUse" cx="450.908936" cy="189.579361" fx="450.908936" fy="189.579361" r="21.166656" gradientTransform="matrix(-0.000000261256,-0.117199,0.210958,-0.000000152308,-15.682188,95.392994)">
<stop offset="0" style="stop-color:rgb(0%,0%,0%);stop-opacity:0.313725;"/>
<stop offset="0.222222" style="stop-color:rgb(0%,0%,0%);stop-opacity:0.27451;"/>
<stop offset="1" style="stop-color:rgb(0%,0%,0%);stop-opacity:0;"/>
</radialGradient>
<radialGradient id="radial3" gradientUnits="userSpaceOnUse" cx="450.908936" cy="189.579361" fx="450.908936" fy="189.579361" r="21.166656" gradientTransform="matrix(0.000000261256,0.117199,-0.210958,0.000000152308,63.311741,-11.291224)">
<stop offset="0" style="stop-color:rgb(0%,0%,0%);stop-opacity:0.313725;"/>
<stop offset="0.222222" style="stop-color:rgb(0%,0%,0%);stop-opacity:0.27451;"/>
<stop offset="1" style="stop-color:rgb(0%,0%,0%);stop-opacity:0;"/>
</radialGradient>
<linearGradient id="linear0" gradientUnits="userSpaceOnUse" x1="254" y1="191.166672" x2="254" y2="-126.333344" gradientTransform="matrix(0,-0.093759,-0.093759,0,26.854129,47.012301)">
<stop offset="0" style="stop-color:rgb(48.627451%,70.196078%,25.882353%);stop-opacity:1;"/>
<stop offset="1" style="stop-color:rgb(40.784314%,62.352941%,21.960784%);stop-opacity:1;"/>
</linearGradient>
</defs>
<g id="surface1">
<path style=" stroke:none;fill-rule:nonzero;fill:url(#radial0);" d="M 23.816406 42.050781 L 27.785156 42.050781 L 27.785156 40.066406 L 23.816406 40.066406 Z M 23.816406 42.050781 "/>
<path style=" stroke:none;fill-rule:nonzero;fill:url(#radial1);" d="M 23.816406 42.050781 L 19.84375 42.050781 L 19.84375 44.035156 L 23.816406 44.035156 Z M 23.816406 42.050781 "/>
<path style=" stroke:none;fill-rule:nonzero;fill:url(#radial2);" d="M 23.816406 42.050781 L 19.84375 42.050781 L 19.84375 40.066406 L 23.816406 40.066406 Z M 23.816406 42.050781 "/>
<path style=" stroke:none;fill-rule:nonzero;fill:url(#radial3);" d="M 23.816406 42.050781 L 27.785156 42.050781 L 27.785156 44.035156 L 23.816406 44.035156 Z M 23.816406 42.050781 "/>
<path style=" stroke:none;fill-rule:nonzero;fill:url(#linear0);" d="M 38.699219 23.199219 C 38.699219 31.445312 32.0625 38.082031 23.816406 38.082031 L 23.816406 42.050781 L 12.898438 36.097656 C 11.90625 35.601562 11.90625 34.609375 12.898438 34.113281 L 23.816406 28.160156 L 23.816406 32.128906 C 30.410156 32.128906 35.722656 28.144531 35.722656 23.199219 C 35.722656 22.921875 35.945312 22.703125 36.21875 22.703125 L 38.203125 22.703125 C 38.476562 22.703125 38.699219 22.921875 38.699219 23.199219 Z M 35.472656 11.289062 C 35.472656 11.664062 35.226562 12.035156 34.730469 12.28125 L 23.816406 18.234375 L 23.816406 14.265625 C 17.21875 14.265625 11.90625 18.25 11.90625 23.199219 C 11.90625 23.472656 11.6875 23.695312 11.410156 23.695312 L 9.425781 23.695312 C 9.152344 23.695312 8.929688 23.472656 8.929688 23.199219 C 8.929688 14.953125 15.570312 8.3125 23.816406 8.3125 L 23.816406 4.34375 L 34.730469 10.296875 C 35.226562 10.546875 35.472656 10.917969 35.472656 11.289062 Z M 35.472656 11.289062 "/>
<path style=" stroke:none;fill-rule:nonzero;fill:rgb(100%,100%,100%);fill-opacity:0.392157;" d="M 23.816406 4.34375 L 23.816406 4.714844 L 34.730469 10.671875 C 35.144531 10.875 35.382812 11.167969 35.453125 11.476562 C 35.46875 11.414062 35.472656 11.351562 35.472656 11.289062 C 35.472656 10.917969 35.226562 10.546875 34.730469 10.296875 Z M 23.816406 8.3125 C 15.570312 8.3125 8.929688 14.953125 8.929688 23.199219 C 8.929688 23.21875 8.933594 23.238281 8.933594 23.253906 C 9.101562 15.15625 15.675781 8.683594 23.816406 8.683594 Z M 36.21875 22.703125 C 35.945312 22.703125 35.722656 22.921875 35.722656 23.199219 C 35.722656 28.144531 30.410156 32.128906 23.816406 32.128906 L 23.816406 32.5 C 30.410156 32.5 35.722656 28.515625 35.722656 23.570312 C 35.722656 23.292969 35.945312 23.074219 36.21875 23.074219 L 38.203125 23.074219 C 38.457031 23.074219 38.667969 23.265625 38.695312 23.511719 C 38.699219 23.40625 38.699219 23.300781 38.699219 23.199219 C 38.699219 22.921875 38.476562 22.703125 38.203125 22.703125 Z M 23.816406 28.160156 L 12.898438 34.113281 C 12.320312 34.402344 12.078125 34.859375 12.175781 35.289062 C 12.246094 34.984375 12.488281 34.691406 12.898438 34.484375 L 23.816406 28.53125 Z M 23.816406 28.160156 "/>
<path style=" stroke:none;fill-rule:nonzero;fill:rgb(0%,0%,0%);fill-opacity:0.235294;" d="M 35.453125 11.105469 C 35.382812 11.410156 35.144531 11.703125 34.730469 11.910156 L 23.816406 17.863281 L 23.816406 18.234375 L 34.730469 12.28125 C 35.226562 12.035156 35.472656 11.664062 35.472656 11.289062 C 35.472656 11.226562 35.46875 11.164062 35.453125 11.105469 Z M 23.816406 13.894531 C 17.21875 13.894531 11.90625 17.878906 11.90625 22.824219 C 11.90625 23.101562 11.6875 23.320312 11.410156 23.320312 L 9.425781 23.320312 C 9.171875 23.320312 8.960938 23.128906 8.933594 22.882812 C 8.933594 22.988281 8.929688 23.09375 8.929688 23.199219 C 8.929688 23.472656 9.152344 23.695312 9.425781 23.695312 L 11.410156 23.695312 C 11.6875 23.695312 11.90625 23.472656 11.90625 23.199219 C 11.90625 18.25 17.21875 14.265625 23.816406 14.265625 Z M 38.695312 23.140625 C 38.53125 31.238281 31.957031 37.710938 23.816406 37.710938 L 23.816406 38.082031 C 32.0625 38.082031 38.699219 31.445312 38.699219 23.199219 C 38.699219 23.179688 38.699219 23.160156 38.695312 23.140625 Z M 12.175781 34.917969 C 12.078125 35.347656 12.320312 35.808594 12.898438 36.097656 L 23.816406 42.050781 L 23.816406 41.679688 L 12.898438 35.726562 C 12.488281 35.519531 12.246094 35.226562 12.175781 34.917969 Z M 12.175781 34.917969 "/>
<path style=" stroke:none;fill-rule:nonzero;fill:rgb(20%,20%,20%);fill-opacity:1;" d="M 23.816406 4.203125 C 23.738281 4.203125 23.675781 4.265625 23.675781 4.34375 L 23.675781 8.179688 C 15.417969 8.253906 8.789062 14.921875 8.789062 23.199219 C 8.789062 23.214844 8.792969 23.234375 8.800781 23.25 C 8.832031 23.574219 9.09375 23.835938 9.425781 23.835938 L 11.410156 23.835938 C 11.761719 23.835938 12.046875 23.546875 12.046875 23.199219 C 12.046875 20.773438 13.347656 18.582031 15.472656 16.988281 C 17.566406 15.417969 20.460938 14.441406 23.675781 14.414062 L 23.675781 18.234375 C 23.675781 18.285156 23.699219 18.332031 23.742188 18.355469 C 23.785156 18.382812 23.839844 18.382812 23.882812 18.359375 L 34.792969 12.410156 C 35.324219 12.144531 35.613281 11.726562 35.613281 11.289062 C 35.613281 10.855469 35.324219 10.4375 34.792969 10.171875 L 34.796875 10.175781 L 23.882812 4.21875 C 23.863281 4.210938 23.839844 4.203125 23.816406 4.203125 Z M 23.957031 4.582031 L 34.664062 10.421875 C 35.128906 10.65625 35.332031 10.980469 35.332031 11.289062 C 35.332031 11.601562 35.128906 11.925781 34.667969 12.15625 L 23.957031 18 L 23.957031 14.265625 C 23.957031 14.1875 23.890625 14.125 23.816406 14.125 C 20.488281 14.125 17.484375 15.128906 15.304688 16.765625 C 13.125 18.398438 11.765625 20.671875 11.765625 23.199219 C 11.765625 23.398438 11.609375 23.554688 11.410156 23.554688 L 9.425781 23.554688 C 9.226562 23.554688 9.070312 23.398438 9.070312 23.199219 C 9.070312 15.027344 15.644531 8.453125 23.816406 8.453125 C 23.890625 8.453125 23.957031 8.390625 23.957031 8.3125 Z M 36.21875 22.5625 C 35.867188 22.5625 35.582031 22.847656 35.582031 23.199219 C 35.582031 25.621094 34.28125 27.8125 32.15625 29.40625 C 30.0625 30.976562 27.167969 31.953125 23.957031 31.980469 L 23.957031 28.160156 C 23.957031 28.109375 23.929688 28.0625 23.886719 28.039062 C 23.84375 28.011719 23.789062 28.011719 23.746094 28.035156 L 12.832031 33.988281 L 12.835938 33.988281 C 12.308594 34.25 12.015625 34.671875 12.015625 35.105469 C 12.015625 35.539062 12.308594 35.957031 12.835938 36.222656 L 23.746094 42.175781 C 23.789062 42.199219 23.84375 42.195312 23.886719 42.171875 C 23.929688 42.148438 23.957031 42.101562 23.957031 42.050781 L 23.957031 38.214844 C 32.210938 38.140625 38.839844 31.472656 38.839844 23.199219 C 38.839844 22.847656 38.554688 22.5625 38.203125 22.5625 Z M 36.21875 22.84375 L 38.203125 22.84375 C 38.402344 22.84375 38.558594 23 38.558594 23.199219 C 38.558594 31.367188 31.984375 37.941406 23.816406 37.941406 C 23.738281 37.941406 23.675781 38.003906 23.675781 38.082031 L 23.675781 41.8125 L 12.96875 35.972656 C 12.5 35.738281 12.296875 35.414062 12.296875 35.105469 C 12.296875 34.796875 12.5 34.46875 12.960938 34.238281 L 23.675781 28.394531 L 23.675781 32.128906 C 23.675781 32.207031 23.738281 32.269531 23.816406 32.269531 C 27.140625 32.269531 30.148438 31.265625 32.328125 29.628906 C 34.507812 27.996094 35.863281 25.722656 35.863281 23.199219 C 35.863281 23 36.019531 22.84375 36.21875 22.84375 Z M 36.21875 22.84375 "/>
</g>
</svg>
